X:1
T:Title
%%score { 1 | 2 }
L:1/8
Q:1/4=106
M:4/4
K:C
V:1 treble nm="Grand Piano"
V:2 bass 
V:1
 [EG]2 [EG]>[EG] [EG]2 [CE]>[EG] | [Ec]2 [GB]>[FA] [EG]2 E2 | F2 F>F F2 [CE]>[B,D] | %3
w: W.~Stillman~Martin * * * * *|||
 [CE]2 [DF]2 [EG]4 | [EG]2 [EG]>[EG] [EG]2 [CE]>[EG] | [Ec]2 [GB]>[FA] [EG]2 E2 | D2 G>[GB] [Gd]4 | %7
w: ||||
 [Dc]2 [DB]>[^FA] G4 | d2 d>d d2 G>G | [Ec]2 [GB]>[FA] [EG]2 E2 | d2 d>d d2 e>d | [Ec]2 E>A G4 | %12
w: |||||
 [EG]2 [EG]>[EG] [EG]2 [CE]>[EG] | [Ec]2 [GB]>[B,FA] [CEG]2 [G,CE]2 | [CA]2 [DGB]>[DGB] [CGc]4 | %15
w: |||
 d2 c>[DB] [Ec]4 |] %16
w: |
V:2
 [C,C]2 [C,C]>[C,C] [C,C]2 [C,G,]>[C,C] | [C,G,]2 [C,A,]>[C,B,] [C,C]2 [C,G,C]2 | %2
 [G,D]2 [G,D]>[G,D] [G,D]2 [G,,G,]>[G,,G,] | [C,G,]2 [C,C]2 [C,C]4 | %4
 [C,C]2 [C,C]>[C,C] [C,C]2 [C,G,]>[C,C] | [C,G,]2 [C,A,]>[C,B,] [C,C]2 [C,G,C]2 | %6
 [D,G,B,]2 [D,B,D]>[D,D] [D,B,]4 | [D,A,]2 [D,G,]>[D,C] [G,B,]4 | %8
 [G,B,F]2 [G,B,F]>[G,B,F] [G,B,F]2 [G,B,F]>[G,B,F] | [C,G,]2 [C,A,]>[C,B,] [C,C]2 [C,G,C]2 | %10
 [G,B,F]2 [G,B,F]>[G,B,F] [G,B,F]2 [G,A,G]>[G,B,F] | [C,C]2 [C,G,C]>[C,F,C] [C,E,C]4 | %12
 [C,C]2 [C,C]>[C,C] [C,C]2 [C,G,]>[C,C] | [C,G,]2 [C,A,]>C, C,2 C,2 | F,2 F,>F, E,4 | %15
 [F,A,F]2 [G,E]>[G,,G,] [C,G,]4 |] %16

